src/32/devices/printer-network.svg

<svg width="32" height="32" version="1" xmlns="http://www.w3.org/2000/svg">
 <circle cx="16" cy="16" r="14" fill="#f2f2f2" stroke-width="1.9598" style="paint-order:stroke fill markers"/>
 <path d="m16 3a13 13 0 0 0-9 3.625v5.875h18v-5.8613a13 13 0 0 0-9-3.6387z" fill="#fff"/>
 <path d="m2.7617 20.5a14 14 0 0 0 13.238 9.5 14 14 0 0 0 13.242-9.5h-26.48z" fill="#8e8e8e" stroke-width="1.1494"/>
 <path d="m4.5176 8a14 14 0 0 0-2.5176 8 14 14 0 0 0 0.92773 5h26.131a14 14 0 0 0 0.94141-5 14 14 0 0 0-2.5312-8h-22.951z" fill="#4f4f4f" stroke-width="1.0702"/>
 <path d="m4.0508 15a12 12 0 0 0-0.050781 1 12 12 0 0 0 0.16992 2h23.648a12 12 0 0 0 0.18164-2 12 12 0 0 0-0.046875-1h-23.902z" opacity=".35"/>
 <circle cx="25" cy="12" r="1" fill="#4fbc4f" style="paint-order:stroke fill markers"/>
 <rect x="23" y="22" width="1" height="4" opacity=".35" style="paint-order:stroke fill markers"/>
 <rect x="21" y="22" width="1" height="4" opacity=".35" style="paint-order:stroke fill markers"/>
 <rect x="19" y="22" width="1" height="4" opacity=".35" style="paint-order:stroke fill markers"/>
 <rect x="17" y="22" width="1" height="4" opacity=".35" style="paint-order:stroke fill markers"/>
</svg>

<svg width="32" height="32" version="1" xmlns="http://www.w3.org/2000/svg"><circle cx="16" cy="16" r="14" fill="#f2f2f2" style="paint-order:stroke fill markers"/><path d="M16 3a13 13 0 0 0-9 3.625V12.5h18V6.639A13 13 0 0 0 16 3z" fill="#fff"/><path d="M2.762 20.5A14 14 0 0 0 16 30a14 14 0 0 0 13.242-9.5H2.762z" fill="#8e8e8e"/><path d="M4.518 8A14 14 0 0 0 2 16a14 14 0 0 0 .928 5h26.13A14 14 0 0 0 30 16a14 14 0 0 0-2.531-8H4.518z" fill="#4f4f4f"/><path d="M4.05 15A12 12 0 0 0 4 16a12 12 0 0 0 .17 2h23.648A12 12 0 0 0 28 16a12 12 0 0 0-.047-1H4.05z" opacity=".35"/><circle cx="25" cy="12" r="1" fill="#4fbc4f" style="paint-order:stroke fill markers"/><path opacity=".35" style="paint-order:stroke fill markers" d="M23 22h1v4h-1zM21 22h1v4h-1zM19 22h1v4h-1zM17 22h1v4h-1z"/></svg>
